X:130
T: Die Schlangenkoechin
N: Q2079U
O: Suedeuropa, Italien
N: Italienische Fassung der Ballade.
N: Zweite Zeile = Refrain.
R: Ballade, Mord; Reigen - Tanz, antiphonal
M: 6/8
L: 1/8
K: G
D | G2BA2d | cB
AGAB | A2GBAG | A3-A2
B | c2ed2c | B3G2
B | AABc2F | G3-G2z

@@@ Tune index: 1185
